X: 4459
T: Bonnie Kate
R: reel
M: 4/4
K: Dmajor
[Dd]3 B||[FA]2 dA BdAF|[DF]FAF EA,CE|DFAF DGBd|ceAc dcdB|
[FA]2 dA BdAF|[DF]FAF EA,CE|DFAF DGBd|ceAc d2Bc|
dAFD BGEG|(3FGF DG EA,CE|DFAF DGBd|ceAc dcdB|
AF (3FFF dF (3FFF|AF (3FFF EA,CE|DFAF DGBd|ceAc defg|
a2 ^gb afdf|bagf e=cef|(3gag fa gbag|fgfe defg|
{ab}a2 ^gb afdf|Adfd cdef|(3gag fa gbag|fgfe dfec|
dAFd BGEG|(3(FGF) DG EA,CE|DFAF DGBd|ceAc dcdB|
AF (3FFF dF (3FFF|AF (3FFF EA,CE|DFAF DGBd|ceAc d2 Bc|
(3dcB (3cBA {c}BAGF|(3GFE (3FED EA,CE|DFAF GBed|ceAc dcdB|
[FA]2 dA BeAF|[DF]FAF EA,CE|DFAF DGBd|ceAc defg|
(3aba ^gb afdf|bagf e=cef|(3gag fa gbag|fgfe defg|
(3aba ^gb afdf|Adfd cdef|(3gag fa gbag|fgec defg|
(3aba ^gb afdf|Adfd cdef|(3gag fa gbag|fgfe defg|
(3aba ^gb afdf|Adfd cdef|(3gag fa gbag|fgfe dfec|
(3(ded) (3(cec) (3(BcB) (3(ABA)|(3(GAG) (3(FGF) EA,CE|DFAF GBed|ceAc dcdB|
AF (3FFF dF (3FFF|AF (3FFF EA,CE|DFAF DGBd|ceAc d2 Bc|
(3(dcB) (3(cBA) {c}BAGF|(3GFE (3FED EA,CE|DFAF GBed|ceAc dcdB|
[FA]2 dA BdAF|[DF]FAF EA,CE|DFAF DGBd|ceAc defg|
ad (3ddd bd (3ddd|adfd cdef|(3gag fa gbag|fgfe defg|
ad (3ddd bd (3ddd|adfd cdef|{a}gfed ceag|fgec defg|
ad (3ddd bd (3ddd|adfd cdef|(3gag fa gbag|fgfe defg|
ad (3ddd bd (3ddd|adfd cdef|[Bg]2 {a}gf gbag|[df]2 [ce]2 [Fd]2 z2|[A,D]2 z2 z4||

